icons/light/lua.svg

<svg width="16" height="16" viewBox="0 0 16 16" fill="none" xmlns="http://www.w3.org/2000/svg">
<path d="M7 3.33333C5.49711 3.33333 4.05577 3.93035 2.99306 4.99306C1.93036 6.05576 1.33333 7.4971 1.33333 9C1.33333 10.5029 1.93036 11.9442 2.99306 13.0069C4.05577 14.0696 5.49711 14.6667 7 14.6667C7.74416 14.6667 8.48103 14.5201 9.16854 14.2353C9.85605 13.9505 10.4807 13.5331 11.0069 13.0069C11.5331 12.4807 11.9505 11.856 12.2353 11.1685C12.5201 10.481 12.6667 9.74415 12.6667 9C12.6667 7.4971 12.0696 6.05576 11.0069 4.99306C9.94423 3.93035 8.50289 3.33333 7 3.33333ZM9 8.66666C8.55797 8.66666 8.13405 8.49107 7.82149 8.17851C7.50893 7.86595 7.33333 7.44202 7.33333 7C7.33333 6.55797 7.50893 6.13404 7.82149 5.82148C8.13405 5.50892 8.55797 5.33333 9 5.33333C9.44203 5.33333 9.86595 5.50892 10.1785 5.82148C10.4911 6.13404 10.6667 6.55797 10.6667 7C10.6667 7.44202 10.4911 7.86595 10.1785 8.17851C9.86595 8.49107 9.44203 8.66666 9 8.66666ZM13 1.33333C12.558 1.33333 12.134 1.50892 11.8215 1.82148C11.5089 2.13404 11.3333 2.55797 11.3333 2.99999C11.3333 3.44202 11.5089 3.86595 11.8215 4.17851C12.134 4.49107 12.558 4.66666 13 4.66666C13.2189 4.66666 13.4356 4.62355 13.6378 4.53979C13.84 4.45604 14.0237 4.33327 14.1785 4.17851C14.3333 4.02374 14.456 3.84001 14.5398 3.6378C14.6236 3.43559 14.6667 3.21886 14.6667 2.99999C14.6667 2.55797 14.4911 2.13404 14.1785 1.82148C13.866 1.50892 13.442 1.33333 13 1.33333Z" fill="#424242"/>
</svg>

<svg xmlns="http://www.w3.org/2000/svg" width="16" height="16" fill="none" xmlns:v="https://vecta.io/nano"><path d="M7 3.333c-1.503 0-2.944.597-4.007 1.66S1.333 7.497 1.333 9s.597 2.944 1.66 4.007 2.504 1.66 4.007 1.66c.744 0 1.481-.147 2.169-.431s1.312-.702 1.838-1.228.944-1.151 1.228-1.838.431-1.424.431-2.168c0-1.503-.597-2.944-1.66-4.007S8.503 3.333 7 3.333zm2 5.333c-.442 0-.866-.176-1.179-.488S7.333 7.442 7.333 7s.176-.866.488-1.179.736-.488 1.179-.488.866.176 1.178.488.488.736.488 1.179-.176.866-.488 1.179-.736.488-1.178.488zm4-7.333c-.442 0-.866.176-1.178.488s-.488.736-.488 1.179.176.866.488 1.179.736.488 1.178.488c.219 0 .436-.043.638-.127s.386-.207.541-.361.277-.339.361-.541.127-.419.127-.638c0-.442-.176-.866-.488-1.179s-.736-.488-1.178-.488z" fill="#424242"/></svg>
